svg/u1f497.svg

<svg viewBox="0 0 128 128" xmlns="http://www.w3.org/2000/svg">
  <path d="M93.96,8.97C72.05,8.97,64,31.35,64,31.35S56.06,8.97,33.99,8.97 c-16.58,0-35.48,13.14-28.5,43.01c6.02,25.75,45.2,56.97,55.87,65.08c-10.2-7.77-46.29-36.64-51.87-60.49 C2.98,28.73,20.6,16.49,36.04,16.49C56.6,16.49,64,37.35,64,37.35s7.5-20.86,27.91-20.86c16.69,0,33.03,12.24,26.53,40.07 c-6.5,27.8-54.31,62.44-54.39,62.49c0,0,0,0,0,0s51.39-37.21,58.38-67.08C129.41,22.11,111.87,8.97,93.96,8.97z" fill="#D81B60" opacity="0.3"/>
  <path d="M118.44,56.56c6.51-27.82-9.84-40.07-26.53-40.07C71.5,16.49,64,37.35,64,37.35 s-7.4-20.86-27.96-20.86c-15.44,0-33.06,12.24-26.55,40.07c5.58,23.85,41.67,52.73,51.87,60.49c1.7,1.29,2.68,2,2.69,2 C64.12,119,111.93,84.36,118.44,56.56z" fill="#D81B60" opacity="0.3"/>
  <g>
    <path d="M84.23,42.62c-15.22,0-20.8,15.55-20.8,15.55s-5.52-15.55-20.84-15.55 c-11.51,0-24.64,9.13-19.79,29.87c4.85,20.74,40.67,46.59,40.67,46.59s35.69-25.84,40.54-46.58 C108.86,51.75,96.67,42.62,84.23,42.62z" fill="#EF5090"/>
    <path d="M40.24,44.17c11.94,0,17.88,12.84,19.79,18.04c0.27,0.74,1.31,0.77,1.62,0.04l1.75-4.09 c-2.46-7.88-9.24-15.55-20.81-15.55c-4.79,0-9.85,1.59-13.79,4.92C32.27,45.26,36.35,44.17,40.24,44.17z" fill="#DA2E75"/>
    <path d="M84.23,42.62c-3.76,0-6.93,0.95-9.58,2.38c1.83-0.7,4.06-0.83,6.3-0.83 c11.26,0,21.33,8.53,16.78,28.27c-3.9,16.94-26.71,37.49-33.68,45.33c-0.16,0.18-0.28,0.63-0.38,1.15 c2.99-2.2,35.69-26.63,40.32-46.42C108.86,51.75,96.67,42.62,84.23,42.62z" fill="#DA2E75"/>
    <path d="M30.79,53.64c2.6-3.25,7.26-5.94,11.2-2.84c2.13,1.67,1.2,5.11-0.71,6.55 c-2.78,2.11-5.2,3.38-6.89,6.69c-1.02,1.99-1.63,4.16-1.94,6.38c-0.12,0.87-1.27,1.09-1.7,0.32 C27.82,65.53,26.99,58.38,30.79,53.64z" fill="#F386AB"/>
    <path d="M72.54,60.47c-1.22,0-2.09-1.18-1.64-2.32c0.83-2.09,1.9-4.13,3.18-5.93 c1.9-2.67,5.52-4.22,7.82-2.61c2.35,1.66,2.04,4.96,0.39,6.56C78.76,59.59,74.3,60.47,72.54,60.47z" fill="#F386AB"/>
  </g>
  <g>
    <path d="M89.12,24.65c-18.79,0-25.69,19.2-25.69,19.2s-6.81-19.2-25.74-19.2 c-14.22,0-30.44,11.27-24.45,36.89c5.17,22.11,38.82,48.9,47.94,55.83c-8.64-6.58-39.14-30.99-43.86-51.15 c-5.5-23.53,9.39-33.89,22.46-33.89c17.39,0,23.64,17.64,23.64,17.64s6.34-17.64,23.6-17.64c14.11,0,27.94,10.36,22.44,33.89 c-5.5,23.51-45.92,52.79-46,52.85c0,0,0,0,0,0s44.08-31.92,50.07-57.54S104.49,24.65,89.12,24.65z" fill="#D81B60" opacity="0.3"/>
    <path d="M63.47,119.08C63.47,119.08,63.47,119.08,63.47,119.08c-0.01-0.01-0.84-0.61-2.28-1.7 C62.63,118.47,63.47,119.08,63.47,119.08z" fill="#D81B60" opacity="0.3"/>
    <path d="M109.47,66.23c5.5-23.53-8.32-33.89-22.44-33.89c-17.26,0-23.6,17.64-23.6,17.64 s-6.26-17.64-23.64-17.64c-13.06,0-27.96,10.35-22.46,33.89c4.72,20.16,35.22,44.57,43.86,51.15c1.44,1.09,2.27,1.7,2.28,1.7 C63.55,119.02,103.97,89.74,109.47,66.23z" fill="#D81B60" opacity="0.4"/>
  </g>
  <path d="M89.12,24.65c-18.79,0-25.69,19.2-25.69,19.2s-6.81-19.2-25.74-19.2 c-14.22,0-30.44,11.27-24.45,36.89c5.17,22.11,38.82,48.9,47.94,55.83c-8.64-6.58-39.14-30.99-43.86-51.15 c-5.5-23.53,9.39-33.89,22.46-33.89c17.39,0,23.64,17.64,23.64,17.64s6.34-17.64,23.6-17.64c14.11,0,27.94,10.36,22.44,33.89 c-5.5,23.51-45.92,52.79-46,52.85c0,0,0,0,0,0s44.08-31.92,50.07-57.54S104.49,24.65,89.12,24.65z" fill="#D81B60" opacity="0.3"/>
  <g>
    <path d="M93.96,8.97C72.05,8.97,64,31.35,64,31.35S56.06,8.97,33.99,8.97 c-16.58,0-35.48,13.14-28.5,43.01c6.02,25.75,45.2,56.97,55.87,65.08c-10.2-7.77-46.29-36.64-51.87-60.49 C2.98,28.73,20.6,16.49,36.04,16.49C56.6,16.49,64,37.35,64,37.35s7.5-20.86,27.91-20.86c16.69,0,33.03,12.24,26.53,40.07 c-6.5,27.8-54.31,62.44-54.39,62.49c0,0,0,0,0,0s51.39-37.21,58.38-67.08C129.41,22.11,111.87,8.97,93.96,8.97z" fill="#D81B60" opacity="0.3"/>
    <path d="M64.05,119.05C64.05,119.05,64.05,119.05,64.05,119.05c-0.01-0.01-0.99-0.72-2.68-2 C63.06,118.34,64.05,119.05,64.05,119.05z" fill="#D81B60" opacity="0.3"/>
  </g>
  <path d="M89.12,24.65c-18.79,0-25.69,19.2-25.69,19.2s-6.81-19.2-25.74-19.2 c-14.22,0-30.44,11.27-24.45,36.89c5.17,22.11,38.82,48.9,47.94,55.83c-8.64-6.58-39.14-30.99-43.86-51.15 c-5.5-23.53,9.39-33.89,22.46-33.89c17.39,0,23.64,17.64,23.64,17.64s6.34-17.64,23.6-17.64c14.11,0,27.94,10.36,22.44,33.89 c-5.5,23.51-45.92,52.79-46,52.85c0,0,0,0,0,0s44.08-31.92,50.07-57.54S104.49,24.65,89.12,24.65z" fill="#D81B60" opacity="0.3"/>
</svg>

<svg viewBox="0 0 128 128" xmlns="http://www.w3.org/2000/svg">
  <defs/>
  <path d="M93.96,8.97 C72.05,8.97 64,31.35 64,31.35 C64,31.35 56.06,8.97 33.99,8.97 C17.41,8.97 -1.49,22.11 5.49,51.98 C11.51,77.73 50.69,108.95 61.36,117.06 C51.16,109.29 15.07,80.42 9.49,56.57 C2.98,28.73 20.6,16.49 36.04,16.49 C56.6,16.49 64,37.35 64,37.35 C64,37.35 71.5,16.49 91.91,16.49 C108.6,16.49 124.94,28.73 118.44,56.56 C111.94,84.36 64.13,119 64.05,119.05 C64.05,119.05 64.05,119.05 64.05,119.05 C64.05,119.05 115.44,81.84 122.43,51.97 C129.41,22.11 111.87,8.97 93.96,8.97 Z" fill="#D81B60" opacity="0.3"/>
  <path d="M118.44,56.56 C124.95,28.74 108.6,16.49 91.91,16.49 C71.5,16.49 64,37.35 64,37.35 C64,37.35 56.6,16.49 36.04,16.49 C20.6,16.49 2.98,28.73 9.49,56.56 C15.07,80.41 51.16,109.29 61.36,117.05 C63.06,118.34 64.04,119.05 64.05,119.05 C64.12,119 111.93,84.36 118.44,56.56 Z" fill="#D81B60" opacity="0.3"/>
  <path d="M84.23,42.62 C69.01,42.62 63.43,58.17 63.43,58.17 C63.43,58.17 57.91,42.62 42.59,42.62 C31.08,42.62 17.95,51.75 22.8,72.49 C27.65,93.23 63.47,119.08 63.47,119.08 C63.47,119.08 99.16,93.24 104.01,72.5 C108.86,51.75 96.67,42.62 84.23,42.62 Z" fill="#EF5090"/>
  <path d="M40.24,44.17 C52.18,44.17 58.12,57.01 60.03,62.21 C60.3,62.95 61.34,62.98 61.65,62.25 L63.4,58.16 C60.94,50.28 54.16,42.61 42.59,42.61 C37.8,42.61 32.74,44.2 28.8,47.53 C32.27,45.26 36.35,44.17 40.24,44.17 Z" fill="#DA2E75"/>
  <path d="M84.23,42.62 C80.47,42.62 77.3,43.57 74.65,45 C76.48,44.3 78.71,44.17 80.95,44.17 C92.21,44.17 102.28,52.7 97.73,72.44 C93.83,89.38 71.02,109.93 64.05,117.77 C63.89,117.95 63.77,118.4 63.67,118.92 C66.66,116.72 99.36,92.29 103.99,72.5 C108.86,51.75 96.67,42.62 84.23,42.62 Z" fill="#DA2E75"/>
  <path d="M30.79,53.64 C33.39,50.39 38.05,47.7 41.99,50.8 C44.12,52.47 43.19,55.91 41.28,57.35 C38.5,59.46 36.08,60.73 34.39,64.04 C33.37,66.03 32.76,68.2 32.45,70.42 C32.33,71.29 31.18,71.51 30.75,70.74 C27.82,65.53 26.99,58.38 30.79,53.64 Z" fill="#F386AB"/>
  <path d="M72.54,60.47 C71.32,60.47 70.45,59.29 70.9,58.15 C71.73,56.06 72.8,54.02 74.08,52.22 C75.98,49.55 79.6,48 81.9,49.61 C84.25,51.27 83.94,54.57 82.29,56.17 C78.76,59.59 74.3,60.47 72.54,60.47 Z" fill="#F386AB"/>
  <path d="M89.12,24.65 C70.33,24.65 63.43,43.85 63.43,43.85 C63.43,43.85 56.62,24.65 37.69,24.65 C23.47,24.65 7.25,35.92 13.24,61.54 C18.41,83.65 52.06,110.44 61.18,117.37 C52.54,110.79 22.04,86.38 17.32,66.22 C11.82,42.69 26.71,32.33 39.78,32.33 C57.17,32.33 63.42,49.97 63.42,49.97 C63.42,49.97 69.76,32.33 87.02,32.33 C101.13,32.33 114.96,42.69 109.46,66.22 C103.96,89.73 63.54,119.01 63.46,119.07 C63.46,119.07 63.46,119.07 63.46,119.07 C63.46,119.07 107.54,87.15 113.53,61.53 C119.52,35.91 104.49,24.65 89.12,24.65 Z" fill="#D81B60" opacity="0.3"/>
  <path d="M63.47,119.08 C63.47,119.08 63.47,119.08 63.47,119.08 C63.46,119.07 62.63,118.47 61.19,117.38 C62.63,118.47 63.47,119.08 63.47,119.08 Z" fill="#D81B60" opacity="0.3"/>
  <path d="M109.47,66.23 C114.97,42.7 101.15,32.34 87.03,32.34 C69.77,32.34 63.43,49.98 63.43,49.98 C63.43,49.98 57.17,32.34 39.79,32.34 C26.73,32.34 11.83,42.69 17.33,66.23 C22.05,86.39 52.55,110.8 61.19,117.38 C62.63,118.47 63.46,119.08 63.47,119.08 C63.55,119.02 103.97,89.74 109.47,66.23 Z" fill="#D81B60" opacity="0.4"/>
  <path d="M89.12,24.65 C70.33,24.65 63.43,43.85 63.43,43.85 C63.43,43.85 56.62,24.65 37.69,24.65 C23.47,24.65 7.25,35.92 13.24,61.54 C18.41,83.65 52.06,110.44 61.18,117.37 C52.54,110.79 22.04,86.38 17.32,66.22 C11.82,42.69 26.71,32.33 39.78,32.33 C57.17,32.33 63.42,49.97 63.42,49.97 C63.42,49.97 69.76,32.33 87.02,32.33 C101.13,32.33 114.96,42.69 109.46,66.22 C103.96,89.73 63.54,119.01 63.46,119.07 C63.46,119.07 63.46,119.07 63.46,119.07 C63.46,119.07 107.54,87.15 113.53,61.53 C119.52,35.91 104.49,24.65 89.12,24.65 Z" fill="#D81B60" opacity="0.3"/>
  <path d="M93.96,8.97 C72.05,8.97 64,31.35 64,31.35 C64,31.35 56.06,8.97 33.99,8.97 C17.41,8.97 -1.49,22.11 5.49,51.98 C11.51,77.73 50.69,108.95 61.36,117.06 C51.16,109.29 15.07,80.42 9.49,56.57 C2.98,28.73 20.6,16.49 36.04,16.49 C56.6,16.49 64,37.35 64,37.35 C64,37.35 71.5,16.49 91.91,16.49 C108.6,16.49 124.94,28.73 118.44,56.56 C111.94,84.36 64.13,119 64.05,119.05 C64.05,119.05 64.05,119.05 64.05,119.05 C64.05,119.05 115.44,81.84 122.43,51.97 C129.41,22.11 111.87,8.97 93.96,8.97 Z" fill="#D81B60" opacity="0.3"/>
  <path d="M64.05,119.05 C64.05,119.05 64.05,119.05 64.05,119.05 C64.04,119.04 63.06,118.33 61.37,117.05 C63.06,118.34 64.05,119.05 64.05,119.05 Z" fill="#D81B60" opacity="0.3"/>
  <path d="M89.12,24.65 C70.33,24.65 63.43,43.85 63.43,43.85 C63.43,43.85 56.62,24.65 37.69,24.65 C23.47,24.65 7.25,35.92 13.24,61.54 C18.41,83.65 52.06,110.44 61.18,117.37 C52.54,110.79 22.04,86.38 17.32,66.22 C11.82,42.69 26.71,32.33 39.78,32.33 C57.17,32.33 63.42,49.97 63.42,49.97 C63.42,49.97 69.76,32.33 87.02,32.33 C101.13,32.33 114.96,42.69 109.46,66.22 C103.96,89.73 63.54,119.01 63.46,119.07 C63.46,119.07 63.46,119.07 63.46,119.07 C63.46,119.07 107.54,87.15 113.53,61.53 C119.52,35.91 104.49,24.65 89.12,24.65 Z" fill="#D81B60" opacity="0.3"/>
</svg>
